svg/u1f6a3_1f3fe_200d_2642.svg

<svg viewBox="0 0 128 128" xmlns="http://www.w3.org/2000/svg">
  <path id="head" d="M77.49,31.28c0.02,1.18-2.48,1.44-2.71,1.61c-0.27,0.2-0.45,0.66-0.64,1.22 c-0.15,0.38-0.3,0.81-0.5,1.25l-0.05,0.1c-0.74,1.53-2.16,3.06-5.97,2.62c-2.52-0.29-2.75-0.42-3.54-0.49 c-1.58-0.15-2.77,2.26-2.77,2.26s-2.75,5.69-6.78,3.54c-4.6-2.45-4.32-3.94-4.32-3.94s4.41-6.09,3.07-10.88 c-1.27-4.57-0.45-13.72,1.77-16.14c3.46-3.75,10.05-5.91,14.84-4.15c5.35,1.97,7.56,6.54,7.38,11.74c-0.07,1.88-0.47,3.7-1.03,4.94 c-0.07,0.15-0.59,1.22-0.68,1.57C75.09,27.85,77.47,29.71,77.49,31.28z" fill="#A56C43"/>
  <path id="mouth" d="M74.14,34.11c-0.15,0.38-0.3,0.81-0.5,1.25l-0.05,0.1c-0.91-0.12-1.76-0.5-2.41-1.21 c-0.71-0.78-0.01-1.35,0.86-0.77C72.54,33.82,73.4,34.08,74.14,34.11z" fill="#473530"/>
  <ellipse id="eye" cx="71.4" cy="26.51" fill="#42312C" rx="1.86" ry="1.21" transform="matrix(0.2199 -0.9755 0.9755 0.2199 29.833 90.3292)"/>
  <path id="eyebrow" d="M72.84,23.99c1.12,0.5,1.5-0.23,1.2-0.9c-0.22-0.5-0.88-0.97-2.28-0.89 c-1.32,0.08-1.95,0.74-2.36,1.15c-0.41,0.4-0.43,0.86-0.14,0.94C69.65,24.39,71.45,23.37,72.84,23.99z" fill="#42312C"/>
  <radialGradient id="shirt_2_" cx="50.523" cy="48.201" gradientTransform="matrix(1 0 0 1 0 2)" gradientUnits="userSpaceOnUse" r="17.081">
    <stop offset="0.3637" stop-color="#00BFA5"/>
    <stop offset="0.8121" stop-color="#00B29A"/>
    <stop offset="1" stop-color="#00AB94"/>
  </radialGradient>
  <path id="shirt" d="M36.1,65.44l0.59-2.34l7.95-16.9c1.67-3.55,4.62-8.05,9.23-9.33 c0.88-0.24,1.75-0.37,2.59-0.37c1.49,0,4.17,0.41,5.49,3.14l2.38,4.94l-2.44,8.69l-4.31,12.37l-0.42,1.79L36.1,65.44z" fill="url(#shirt_2_)"/>
  <polygon id="pants" fill="#7C7C7C" points="35.13,72.23 35.13,69 36.56,63.53 57.97,66.29 73.79,69.35 73.79,72.23 "/>
  <g id="boat">
    <radialGradient id="SVGID_1_" cx="63.4" cy="42.36" gradientTransform="matrix(1 0 0 -0.4605 0 105.1468)" gradientUnits="userSpaceOnUse" r="40.4295">
      <stop offset="0.5" stop-color="#FF9800"/>
      <stop offset="0.7654" stop-color="#FA8B00"/>
      <stop offset="0.9949" stop-color="#F57C00"/>
    </radialGradient>
    <path d="M7.61,73.15h111.59c0,0-0.13,17.86-10.14,24.98h-81.9C27.15,98.13,13.95,88.22,7.61,73.15z" fill="url(#SVGID_1_)"/>
    <path d="M124,72.14c-0.01,2.49-2.03,4.5-4.52,4.5H8.51c-2.49,0-4.51-2.01-4.51-4.5s2.02-4.51,4.51-4.51 h110.99C121.99,67.63,124,69.65,124,72.14z" fill="#E65100"/>
  </g>
  <g id="water">
    <rect fill="#039BE5" height="30.42" width="120" x="3.99" y="93.58"/>
    <path d="M124.01,85.38c-0.01,0-0.01,0.01-0.02,0.01c-2.64,0-4.84,6.03-10.66,6.03s-11.69-7.08-17.32-7.08 c-5.65,0-8.96,6.2-14.67,7.08h-2.67c-5.71-0.88-9.02-7.08-14.65-7.08c-4.35,0-8.95,6.2-14.67,7.08h-2.67 c-5.71-0.88-9.02-7.08-14.65-7.08c-5.64,0-8.95,6.2-14.67,7.08h-2.72c-4.22-0.67-7.7-6.03-10.65-6.03v14.74H4v6.19 c3.52-1.8,6.43-5.36,10.64-6.03h2.73c5.71,0.88,9.02,7.08,14.66,7.08s8.95-6.2,14.66-7.08h2.67c5.71,0.88,9.02,7.08,14.66,7.08 c5.63,0,8.94-6.2,14.66-7.08h2.67c5.71,0.88,9.02,7.08,14.66,7.08c5.63,0,8.94-6.2,14.66-7.08h2.67c4.23,0.65,7.14,4.22,10.66,6.03 v-6.19h0.01L124.01,85.38L124.01,85.38z" fill="#29B6F6"/>
  </g>
  <g id="paddle">
    <polygon enable-background="new " fill="#3D3D3D" opacity="0.2" points="60.25,99.18 82.58,76.64 91.5,67.63 82.15,67.63 73.22,76.64 58.42,91.58 "/>
    <rect fill="#FFA726" height="6.65" transform="matrix(0.7037 -0.7105 0.7105 0.7037 -30.5205 75.4962)" width="49" x="50.76" y="71.02"/>
    <polygon fill="#EA960F" points="90.4,63.8 81.53,63.32 91.39,53.08 96.65,57.37 "/>
    <path d="M60.79,88.84c-1.59-1.58-3.67-2.37-5.76-2.37c-2.11,0-4.22,0.81-5.82,2.43l-8.97,9.05 c-3.18,3.21-3.16,8.4,0.06,11.58c1.6,1.58,3.68,2.37,5.76,2.37c2.11,0,4.22-0.81,5.82-2.43l8.97-9.05 C64.04,97.21,64.01,92.02,60.79,88.84z" fill="#FFD54F"/>
  </g>
  <linearGradient id="arm_1_" gradientTransform="matrix(1 0 0 -1 0 128)" gradientUnits="userSpaceOnUse" x1="86.5265" x2="66.9916" y1="73.3797" y2="80.3565">
    <stop offset="0.5979" stop-color="#A56C43"/>
    <stop offset="1" stop-color="#8D5738"/>
  </linearGradient>
  <path id="arm" d="M98.72,53.62c-0.4-0.5-1.89-1.06-2.5-1.28c0.04-0.33-0.04-0.67-0.27-0.94l-1.39-1.7 c-0.17-0.21-0.4-0.33-0.64-0.4c-0.11-0.04-0.22-0.06-0.34-0.07c-0.04,0-0.08-0.01-0.13-0.01c-0.01,0-0.02,0-0.03,0 c-0.07,0-0.14,0.01-0.2,0.03c-0.13,0.02-0.25,0.06-0.37,0.13c0,0-0.01,0-0.01,0.01l-0.01,0c0,0-0.01,0-0.01,0.01l-3.46,2.13 l-0.26,0.16l-11.68-0.4l-10.75-7.46c-0.08-0.05-0.68-0.47-0.68-0.47l0,0l0,0l-4.23,6.09l0.01,0l0,0l12.08,8.39 c0.06,0.05,0.12,0.08,0.18,0.12c0.06,0.05,0.13,0.09,0.19,0.13c0.12,0.08,0.25,0.14,0.37,0.2c0.09,0.04,0.18,0.08,0.27,0.12 c0.1,0.04,0.21,0.07,0.31,0.1c0.12,0.04,0.25,0.08,0.38,0.1c0.03,0.01,0.06,0,0.08,0.01c0.19,0.03,0.38,0.06,0.58,0.06 c0.03,0,0.07-0.01,0.1-0.01h0.04v0.01l9.86,0.34l-0.02,0.06l0,0l0,0.02c0,0,4.69,3.24,6.94,3.54c0.42,0.1,1.13,0.26,1.76,0.26 c0.5,0,0.95-0.1,1.15-0.38c0.2-0.28,0.08-0.9,0.18-1.07c0.25-0.43,0.88-0.39,1.16-0.96c0.04-0.08,0.05-0.18,0.06-0.29 c0.02-0.32-0.07-0.75-0.13-1.03c-0.03-0.24,0.16-0.57,0.37-0.66c0.48-0.2,0.72-0.39,0.85-0.79c0.04-0.11,0.06-0.22,0.06-0.34 c0.03-0.32-0.06-0.65-0.21-0.96c-0.05-0.1-0.09-0.21-0.1-0.33c-0.04-0.34,0.07-0.71,0.34-0.9c0.2-0.14,0.37-0.48,0.36-0.86 C98.97,54.09,98.9,53.84,98.72,53.62z" fill="url(#arm_1_)"/>
  <g id="shirt_1_">
    <path d="M61.56,37.8c-1.03-0.74-2.21-1.1-3.39-1.1c-1.8,0-3.58,0.84-4.72,2.41 c-1.88,2.6-1.29,6.23,1.31,8.11l9.64,6.95l6.8-9.42L61.56,37.8z" fill="#04A287"/>
  </g>
  <path id="hair" d="M54.81,9.39c2.99-2.52,7.79-3.63,12.06-3.02c2.87,0.41,5.5,1.46,7.62,3.03 c0.04,0.03,4.07,3.07,4.65,5.41c0.62,2.51-0.61,3.66-0.9,3.85c-0.45,0.3-1.27,0.02-1.27,0.02c-1.64-0.45-6.87-1.85-9.67-1.84 c-0.44,0-0.94,0.04-1.21,0.39c-0.12,0.15-0.4,1.22-0.45,1.4c-0.67,2.4-0.78,3.97-1.82,5.35c-0.17,0.22-0.73,0.45-0.73,0.45 l-0.68-1.73c-0.45-1-0.87-1.87-1.71-1.88c-2.49-0.02-3.02,4.31-0.42,5.88c0,0-1.17,3.24-4.35,3.2c-2.78-0.03-3.02-0.7-3.06-1.76 c-0.1-2.3-0.52-3.37-0.96-4.5c-0.52-1.34-1.06-2.72-0.98-6.03C51.02,14.31,52.36,11.46,54.81,9.39z" fill="#3C2C23"/>
  <radialGradient id="hairHighlights_1_" cx="397.3779" cy="76.3022" gradientTransform="matrix(-0.9976 -0.0688 0.0679 -0.9839 455.9583 124.7104)" gradientUnits="userSpaceOnUse" r="17.4243">
    <stop offset="0.5264" stop-color="#554138" stop-opacity="0"/>
    <stop offset="1" stop-color="#554138"/>
  </radialGradient>
  <path id="hairHighlights" d="M54.81,9.39c2.99-2.52,7.79-3.63,12.06-3.02 c2.87,0.41,5.5,1.46,7.62,3.03c0.04,0.03,4.07,3.07,4.65,5.41c0.62,2.51-0.61,3.66-0.9,3.85c-0.45,0.3-1.27,0.02-1.27,0.02 c-1.64-0.45-6.87-1.85-9.67-1.84c-0.44,0-0.94,0.04-1.21,0.39c-0.12,0.15-0.4,1.22-0.45,1.4c-0.67,2.4-0.78,3.97-1.82,5.35 c-0.17,0.22-0.73,0.45-0.73,0.45l-0.68-1.73c-0.45-1-0.87-1.87-1.71-1.88c-2.49-0.02-3.02,4.31-0.42,5.88c0,0-1.17,3.24-4.35,3.2 c-2.78-0.03-3.02-0.7-3.06-1.76c-0.1-2.3-0.52-3.37-0.96-4.5c-0.52-1.34-1.06-2.72-0.98-6.03C51.02,14.31,52.36,11.46,54.81,9.39z" fill="url(#hairHighlights_1_)"/>
</svg>

<svg viewBox="0 0 128 128" xmlns="http://www.w3.org/2000/svg">
  <defs>
    <radialGradient id="shirt_2_" cx="50.523" cy="50.201" gradientUnits="userSpaceOnUse" r="17.081">
      <stop offset="0.3637" stop-color="#00BFA5"/>
      <stop offset="0.8121" stop-color="#00B29A"/>
      <stop offset="1" stop-color="#00AB94"/>
    </radialGradient>
    <linearGradient id="arm_1_" gradientTransform="matrix(1 0 0 -1 0 0)" gradientUnits="userSpaceOnUse" x1="86.5265" x2="66.9916" y1="-54.6203" y2="-47.6435">
      <stop offset="0.5979" stop-color="#A56C43"/>
      <stop offset="1" stop-color="#8D5738"/>
    </linearGradient>
    <radialGradient id="hairHighlights_1_" cx="-66.098574" cy="-18.039927" gradientTransform="matrix(-0.9976 -0.0688 0.0679 -0.9839 0 0)" gradientUnits="userSpaceOnUse" r="17.4243">
      <stop offset="0.5264" stop-color="#554138" stop-opacity="0"/>
      <stop offset="1" stop-color="#554138"/>
    </radialGradient>
    <radialGradient id="SVGID_1_" cx="63.4" cy="-185.971813" gradientTransform="matrix(1 0 0 -0.4605 0 0)" gradientUnits="userSpaceOnUse" r="40.4295">
      <stop offset="0.5" stop-color="#FF9800"/>
      <stop offset="0.7654" stop-color="#FA8B00"/>
      <stop offset="0.9949" stop-color="#F57C00"/>
    </radialGradient>
  </defs>
  <path id="head" d="M77.49,31.28 C77.51,32.46 75.01,32.72 74.78,32.89 C74.51,33.09 74.33,33.55 74.14,34.11 C73.99,34.49 73.84,34.92 73.64,35.36 L73.59,35.46 C72.85,36.99 71.43,38.52 67.62,38.08 C65.1,37.79 64.87,37.66 64.08,37.59 C62.5,37.44 61.31,39.85 61.31,39.85 C61.31,39.85 58.56,45.54 54.53,43.39 C49.93,40.94 50.21,39.45 50.21,39.45 C50.21,39.45 54.62,33.36 53.28,28.57 C52.01,24 52.83,14.85 55.05,12.43 C58.51,8.68 65.1,6.52 69.89,8.28 C75.24,10.25 77.45,14.82 77.27,20.02 C77.2,21.9 76.8,23.72 76.24,24.96 C76.17,25.11 75.65,26.18 75.56,26.53 C75.09,27.85 77.47,29.71 77.49,31.28 Z" fill="#A56C43"/>
  <path id="mouth" d="M74.14,34.11 C73.99,34.49 73.84,34.92 73.64,35.36 L73.59,35.46 C72.68,35.34 71.83,34.96 71.18,34.25 C70.47,33.47 71.17,32.9 72.04,33.48 C72.54,33.82 73.4,34.08 74.14,34.11 Z" fill="#473530"/>
  <path id="eye" d="M71.803,24.694 C72.455,24.841 72.801,25.772 72.575,26.774 C72.349,27.776 71.637,28.469 70.985,28.322 C70.333,28.176 69.988,27.244 70.214,26.242 C70.44,25.24 71.151,24.547 71.803,24.694 Z" fill="#42312C"/>
  <path id="eyebrow" d="M72.84,23.99 C73.96,24.49 74.34,23.76 74.04,23.09 C73.82,22.59 73.16,22.12 71.76,22.2 C70.44,22.28 69.81,22.94 69.4,23.35 C68.99,23.75 68.97,24.21 69.26,24.29 C69.65,24.39 71.45,23.37 72.84,23.99 Z" fill="#42312C"/>
  <path id="shirt" d="M36.1,65.44 L36.69,63.1 L44.64,46.2 C46.31,42.65 49.26,38.15 53.87,36.87 C54.75,36.63 55.62,36.5 56.46,36.5 C57.95,36.5 60.63,36.91 61.95,39.64 L64.33,44.58 L61.89,53.27 L57.58,65.64 L57.16,67.43 L36.1,65.44 Z" fill="url(#shirt_2_)"/>
  <path id="pants" d="M35.13,72.23 L35.13,69 L36.56,63.53 L57.97,66.29 L73.79,69.35 L73.79,72.23 Z" fill="#7C7C7C"/>
  <path d="M7.61,73.15 L119.2,73.15 C119.2,73.15 119.07,91.01 109.06,98.13 L27.16,98.13 C27.15,98.13 13.95,88.22 7.61,73.15 Z" fill="url(#SVGID_1_)"/>
  <path d="M124,72.14 C123.99,74.63 121.97,76.64 119.48,76.64 L8.51,76.64 C6.02,76.64 4,74.63 4,72.14 C4,69.65 6.02,67.63 8.51,67.63 L119.5,67.63 C121.99,67.63 124,69.65 124,72.14 Z" fill="#E65100"/>
  <path d="M3.99,93.58 L123.99,93.58 L123.99,124 L3.99,124 L3.99,93.58 Z" fill="#039BE5"/>
  <path d="M124.01,85.38 C124,85.38 124,85.39 123.99,85.39 C121.35,85.39 119.15,91.42 113.33,91.42 C107.51,91.42 101.64,84.34 96.01,84.34 C90.36,84.34 87.05,90.54 81.34,91.42 L78.67,91.42 C72.96,90.54 69.65,84.34 64.02,84.34 C59.67,84.34 55.07,90.54 49.35,91.42 L46.68,91.42 C40.97,90.54 37.66,84.34 32.03,84.34 C26.39,84.34 23.08,90.54 17.36,91.42 L14.64,91.42 C10.42,90.75 6.94,85.39 3.99,85.39 L3.99,100.13 L4,100.13 L4,106.32 C7.52,104.52 10.43,100.96 14.64,100.29 L17.37,100.29 C23.08,101.17 26.39,107.37 32.03,107.37 C37.67,107.37 40.98,101.17 46.69,100.29 L49.36,100.29 C55.07,101.17 58.38,107.37 64.02,107.37 C69.65,107.37 72.96,101.17 78.68,100.29 L81.35,100.29 C87.06,101.17 90.37,107.37 96.01,107.37 C101.64,107.37 104.95,101.17 110.67,100.29 L113.34,100.29 C117.57,100.94 120.48,104.51 124,106.32 L124,100.13 L124.01,100.13 L124.01,85.38 L124.01,85.38 Z" fill="#29B6F6"/>
  <path d="M60.25,99.18 L82.58,76.64 L91.5,67.63 L82.15,67.63 L73.22,76.64 L58.42,91.58 Z" fill="#3D3D3D" opacity="0.2"/>
  <path d="M55.659,89.408 L90.14,54.593 L94.865,59.273 L60.384,94.088 L55.659,89.408 Z" fill="#FFA726"/>
  <path d="M90.4,63.8 L81.53,63.32 L91.39,53.08 L96.65,57.37 Z" fill="#EA960F"/>
  <path d="M60.79,88.84 C59.2,87.26 57.12,86.47 55.03,86.47 C52.92,86.47 50.81,87.28 49.21,88.9 L40.24,97.95 C37.06,101.16 37.08,106.35 40.3,109.53 C41.9,111.11 43.98,111.9 46.06,111.9 C48.17,111.9 50.28,111.09 51.88,109.47 L60.85,100.42 C64.04,97.21 64.01,92.02 60.79,88.84 Z" fill="#FFD54F"/>
  <path id="arm" d="M98.72,53.62 C98.32,53.12 96.83,52.56 96.22,52.34 C96.26,52.01 96.18,51.67 95.95,51.4 L94.56,49.7 C94.39,49.49 94.16,49.37 93.92,49.3 C93.81,49.26 93.7,49.24 93.58,49.23 C93.54,49.23 93.5,49.22 93.45,49.22 C93.44,49.22 93.43,49.22 93.42,49.22 C93.35,49.22 93.28,49.23 93.22,49.25 C93.09,49.27 92.97,49.31 92.85,49.38 C92.85,49.38 92.84,49.38 92.84,49.39 L92.83,49.39 C92.83,49.39 92.82,49.39 92.82,49.4 L89.36,51.53 L89.1,51.69 L77.42,51.29 L66.67,43.83 C66.59,43.78 65.99,43.36 65.99,43.36 L65.99,43.36 L65.99,43.36 L61.76,49.45 L61.77,49.45 L61.77,49.45 L73.85,57.84 C73.91,57.89 73.97,57.92 74.03,57.96 C74.09,58.01 74.16,58.05 74.22,58.09 C74.34,58.17 74.47,58.23 74.59,58.29 C74.68,58.33 74.77,58.37 74.86,58.41 C74.96,58.45 75.07,58.48 75.17,58.51 C75.29,58.55 75.42,58.59 75.55,58.61 C75.58,58.62 75.61,58.61 75.63,58.62 C75.82,58.65 76.01,58.68 76.21,58.68 C76.24,58.68 76.28,58.67 76.31,58.67 L76.35,58.67 L76.35,58.68 L86.21,59.02 L86.19,59.08 L86.19,59.08 L86.19,59.1 C86.19,59.1 90.88,62.34 93.13,62.64 C93.55,62.74 94.26,62.9 94.89,62.9 C95.39,62.9 95.84,62.8 96.04,62.52 C96.24,62.24 96.12,61.62 96.22,61.45 C96.47,61.02 97.1,61.06 97.38,60.49 C97.42,60.41 97.43,60.31 97.44,60.2 C97.46,59.88 97.37,59.45 97.31,59.17 C97.28,58.93 97.47,58.6 97.68,58.51 C98.16,58.31 98.4,58.12 98.53,57.72 C98.57,57.61 98.59,57.5 98.59,57.38 C98.62,57.06 98.53,56.73 98.38,56.42 C98.33,56.32 98.29,56.21 98.28,56.09 C98.24,55.75 98.35,55.38 98.62,55.19 C98.82,55.05 98.99,54.71 98.98,54.33 C98.97,54.09 98.9,53.84 98.72,53.62 Z" fill="url(#arm_1_)"/>
  <path d="M61.56,37.8 C60.53,37.06 59.35,36.7 58.17,36.7 C56.37,36.7 54.59,37.54 53.45,39.11 C51.57,41.71 52.16,45.34 54.76,47.22 L64.4,54.17 L71.2,44.75 L61.56,37.8 Z" fill="#04A287"/>
  <path id="hair" d="M54.81,9.39 C57.8,6.87 62.6,5.76 66.87,6.37 C69.74,6.78 72.37,7.83 74.49,9.4 C74.53,9.43 78.56,12.47 79.14,14.81 C79.76,17.32 78.53,18.47 78.24,18.66 C77.79,18.96 76.97,18.68 76.97,18.68 C75.33,18.23 70.1,16.83 67.3,16.84 C66.86,16.84 66.36,16.88 66.09,17.23 C65.97,17.38 65.69,18.45 65.64,18.63 C64.97,21.03 64.86,22.6 63.82,23.98 C63.65,24.2 63.09,24.43 63.09,24.43 L62.41,22.7 C61.96,21.7 61.54,20.83 60.7,20.82 C58.21,20.8 57.68,25.13 60.28,26.7 C60.28,26.7 59.11,29.94 55.93,29.9 C53.15,29.87 52.91,29.2 52.87,28.14 C52.77,25.84 52.35,24.77 51.91,23.64 C51.39,22.3 50.85,20.92 50.93,17.61 C51.02,14.31 52.36,11.46 54.81,9.39 Z" fill="#3C2C23"/>
  <path id="hairHighlights" d="M54.81,9.39 C57.8,6.87 62.6,5.76 66.87,6.37 C69.74,6.78 72.37,7.83 74.49,9.4 C74.53,9.43 78.56,12.47 79.14,14.81 C79.76,17.32 78.53,18.47 78.24,18.66 C77.79,18.96 76.97,18.68 76.97,18.68 C75.33,18.23 70.1,16.83 67.3,16.84 C66.86,16.84 66.36,16.88 66.09,17.23 C65.97,17.38 65.69,18.45 65.64,18.63 C64.97,21.03 64.86,22.6 63.82,23.98 C63.65,24.2 63.09,24.43 63.09,24.43 L62.41,22.7 C61.96,21.7 61.54,20.83 60.7,20.82 C58.21,20.8 57.68,25.13 60.28,26.7 C60.28,26.7 59.11,29.94 55.93,29.9 C53.15,29.87 52.91,29.2 52.87,28.14 C52.77,25.84 52.35,24.77 51.91,23.64 C51.39,22.3 50.85,20.92 50.93,17.61 C51.02,14.31 52.36,11.46 54.81,9.39 Z" fill="url(#hairHighlights_1_)"/>
</svg>
